22x22/devices/network-wireless-hotspot.svg

<svg xmlns="http://www.w3.org/2000/svg" width="22" height="22" version="1">
 <path style="opacity:0.2" d="m 11.039183,4.500094 c -3.7929575,0 -7.2073579,1.3124767 -10.0391111,3.3477327 L 11.039183,18.5 20.999688,7.8100166 C 18.178959,5.7972132 14.802712,4.5001874 11.039183,4.5001874 Z"/>
 <path style="fill:#4f9a3c" d="M 11.039183,4 C 7.2462255,4 3.8318251,5.3124767 1.0000719,7.3477327 L 11.039183,17.999906 20.999688,7.3099226 C 18.178959,5.2971192 14.802712,4.0000934 11.039183,4.0000934 Z"/>
 <path style="fill:#9cda72" d="m 10.99988,6.7969192 c -3.0214153,0 -5.8255124,0.9650439 -8.0777819,2.5948452 L 11.042059,17.99986 19.077662,9.3912976 C 16.825393,7.7617298 14.021439,6.7968725 10.99988,6.7968725 Z"/>
 <path style="fill:#f4f4f7" d="m 10.99988,9.5976659 c -2.2660734,0 -4.3691822,0.7237601 -6.0584562,1.9461451 L 11.031514,18 17.058336,11.543811 C 15.369254,10.321286 13.26605,9.5977593 10.99988,9.5977593 Z"/>
 <path style="opacity:0.1;fill:#f4f4f7" d="M 11.039183,4 C 7.2462255,4 3.8318251,5.3125234 1.0000719,7.3477793 L 1.2696828,7.634053 C 4.0485204,5.7057389 7.3636081,4.4667818 11.039423,4.4667818 c 3.647104,0 6.925525,1.2241131 9.692092,3.1307682 L 20.999928,7.3095398 C 18.17824,5.2972033 14.802472,4.0001775 11.038464,4.0001775 Z"/>
 <path style="opacity:0.2;fill:#f4f4f7" d="m 11.000359,6.7964523 c -3.021415,0 -5.8259914,0.9657909 -8.0782609,2.5956389 l 0.2705455,0.2862736 c 2.2053452,-1.5162776 4.9038028,-2.415084 7.8074524,-2.415084 2.904847,0 5.602634,0.8997399 7.808411,2.4169045 L 19.077399,9.3917084 C 16.825608,7.7616738 14.022134,6.7958829 11.000575,6.7958829 Z"/>
 <path style="opacity:0.2;fill:#f4f4f7" d="m 11.000359,9.5971992 c -2.2660731,0 -4.3696612,0.7241328 -6.0589352,1.9464718 l 0.2705455,0.286275 c 1.6415829,-1.109376 3.6396273,-1.765965 5.7881267,-1.765965 2.149506,0 4.147167,0.657522 5.789085,1.767785 l 0.268892,-0.28801 C 15.36947,10.321229 13.266745,9.5972365 11.000575,9.5972365 Z"/>
</svg>

<svg xmlns="http://www.w3.org/2000/svg" width="22" height="22" version="1"><path style="opacity:.2" d="M11.04 4.5C7.245 4.5 3.831 5.813 1 7.848L11.04 18.5 21 7.81c-2.821-2.013-6.197-3.31-9.96-3.31z"/><path style="fill:#4f9a3c" d="M11.04 4C7.245 4 3.831 5.312 1 7.348L11.04 18 21 7.31C18.179 5.297 14.803 4 11.04 4z"/><path style="fill:#9cda72" d="M11 6.797c-3.022 0-5.826.965-8.078 2.595L11.042 18l8.036-8.609A13.758 13.758 0 0 0 11 6.797z"/><path style="fill:#f4f4f7" d="M11 9.598c-2.266 0-4.37.723-6.059 1.946L11.031 18l6.027-6.456A10.317 10.317 0 0 0 11 9.598z"/><path style="opacity:.1;fill:#f4f4f7" d="M11.04 4C7.245 4 3.831 5.313 1 7.348l.27.286c2.779-1.928 6.094-3.167 9.77-3.167 3.647 0 6.925 1.224 9.692 3.13L21 7.31C18.178 5.297 14.802 4 11.038 4z"/><path style="opacity:.2;fill:#f4f4f7" d="M11 6.796a13.76 13.76 0 0 0-8.078 2.596l.27.286A13.758 13.758 0 0 1 11 7.263c2.905 0 5.603.9 7.809 2.417l.268-.288a13.752 13.752 0 0 0-8.076-2.596z"/><path style="opacity:.2;fill:#f4f4f7" d="M11 9.597c-2.266 0-4.37.724-6.059 1.947l.271.286A10.32 10.32 0 0 1 11 10.064c2.15 0 4.147.658 5.79 1.768l.268-.288a10.313 10.313 0 0 0-6.057-1.947z"/></svg>
